X: 10951
T: Presto
C: Gaetano Brandi
B: "Man of Feeling", Gaetano Brandi, ed. v.1 p.95
F: http://archive.org/details/manoffeelingorge00rugg
Z: 2012 John Chambers <jc:trillian.mit.edu>
M: 6/8
L: 1/8
K: D
%%graceslurs 0
z(fg) |\
afd {e/}dcd | (^de)e e(ef) | {a/}gfg bag | (^ef)f f(fg) |\
afd {e/}dcd | (^de)e egb | (afd) (gec) | d3 :|
|: z(fd) |\
(cA)A A(fd) | (cA)A A(AB) | c(cd) e(ef) | Hg3 z(gb) |\
(afd) (dgb) | afd (dgb) | afd gec | d3 :|
%
%%center -

%%sep 2 1 500
%%sep 1 1 500

